X: 2
T: The College Groves
R: reel
M: 4/4
L: 1/8
K: Dmix
D2 (3DDD ADE{G}D|DE [Ec]E [Ed]E[Ec]E|E{G}D FA d3 B|{d}BAGE {G}EDCE|D2 (3DDD ADE{G}D|DE [Ec]E [Ed]E[Ec]E|E{G}D FA [F3d3] B|{d}BAGE {G}EDCE|DEFB ADE{G}D|E2 [Ec]E [Ed]E[Ec]E|E{G}D FA dged |cAGE {G}EDCE|D2 (3DDD ADE{G}D|DE [Ec]E [Ed]E[Ec]E|E{G}D FA [F3d3] B|{d}BAGE {G}EDDg||f~d3 fa{b}af|e~c3 ef{g}fe|fd{e}dc dcAB|(3ccA GE{G}ED Dg|f~d3 fa{b}af|e~c3 ef{g}fe|d2 (3efg fagb|afge f{a}~d3|f~a3 f~d3|e~g3 e~c3|f~a3 fd{e}dB|{d}BAGE {G}ED D2|fgag f~d3|efgf e~c3|d2 (3efg fagb|afge fdde|||:f2df {a}fedf|(3.e.f.ecf (3efece|f2d~f3af|{a}fec feddf|{a}fed f{a}fedf|(3.e.f.e ceAece |d2 (3efg fagb|1afge fdde:|2afge fdd2||"The following 4 bars can replace the first 4 bars of the reel 2nd time around"|z|z|z|e|=f2d=f (3efe ^cA |d2AGFGEF|DEFG Ad{e}dc|(3ABc GE{G}EDCE||"And here's another of Kevin's variations for the first 4 bars"|z|z|z|dcAG FGAB|[E3c3]c{d}cAG E|DEFG Ad{e}dc|(3ABc GE{G}EDCE||


Tune 1272	Setting 1272

